!!!OTL: AUS IHREM SCHLAF ERWACHET
!!!ARE: Europa, Mitteleuropa, Deutschland
!!!SCT: B0196
!!!YEM: Copyright 1995, estate of Helmut Schaffrath.
**kern
*ICvox
*Ivox
*M6/8
*k[f#c#g#]
*A:
{8e
=1
4c#
8e
4a
8b
=2
4cc#
8b
4a}
{8a
=3
4dd
8cc#
4b
8a
=4
2g#
8r}
{8dd
=5
4cc#
8b
4a
8g#
=6
4f#
8a#
4b}
{8cc#
=7
8.dd
16cc#
8b
8a
8b
8g#
=8
2a
8r}
{8e
=9
4g#
8e
4a
8e
=10
4.b
4cc#}
{8cc#
=11
4dd
8dd
8cc#
8b
8cc#
=12
2b
8r}
{8b
=13
4cc#
8b
4a
8g#
=14
4f#
8a#
4b}
{8cc#
=15
8.dd
16cc#
8b
8a
8b
8g#
=16
4.cc#
16cc#
16ee
16dd
16cc#}
{16b
16a
=17
4b
8b
4g#
8g#
=18
2a
8r}
==
!!!AGN: Jahreszeiten - Lied, Fruehling
!!!ONB: ESAC (Essen Associative Code) Database: BOEHME
!!!AMT: compound duple
!!!AIN: vox
!!!EED: Helmut Schaffrath
!!!EEV: 1.0
*-
